X: 1
T: 莫斯科郊外的晚上
M: 2/4
L: 1/8
Q: 100
K: C
%%stretchlast .7
%%staves {(PianoRightHand) (PianoLeftHand)}
V:PianoRightHand clef=treble
V:PianoLeftHand clef=bass
[V: PianoRightHand]
Ac ec | d2 cB | e2 d2 | A4 | ce gg |
a2 gf | e4 | ^f2 ^g2 | ba (e2 | e) B2 A |
e3/2d1/2 (f2 | f2) gf | e2 dc | e2 d2 | A4 |]
[V: PianoLeftHand]
A,4 | G,4 | E,4 | A,4 | C,4 |
F,4 | C,4 | ^F,4 | E,4 | E,4 |
F,4 | F,4 | E,4 | G,4 | A,4 |]
